X:1
T:The Prophet’s Call
T:The Prophet’s Call
T:Fanny Birdsall
T:Thomas H. Nelson, 1901
T:Public Domain Courtesy of the Cyber Hymnal™
T:Public Domain Courtesy of the Cyber Hymnal™
C:Fanny Birdsall
Z:Public Domain
Z:Courtesy of the Cyber Hymnal™
%%score ( 1 2 ) ( 3 4 )
L:1/8
Q:1/4=90
M:4/4
K:Bb
V:1 treble 
V:2 treble 
V:3 bass 
V:4 bass 
V:1
 [DF]>[DF] | [DF]>[DF] [EF]<[EF] [DF]!fermata![DF] [DB]>[DB] | [EA]>[EA] [EG]>[EA] [DB]2 [DF][DF] | %3
w: 1.~When the|old pro- phet- ic man- tle had up-|on E- li- sha fell, As he|
w: 2.~He at|first would kiss his fa- ther, and his|mo- ther bid fare- well, But E-|
w: 3.~So he|slew and boiled his ox- en on the|splin- ters of his plow, And he|
w: 4.~See him|now— the swell- ing Jor- dan, in its|on- ward course is stayed, And the|
w: 5.~If you’d|have E- li- sha’s pow- er, you must|take the way he trod, Sell what-|
 [EG][EG] [EG]>[EG] [=EB]>[EB] [EA]>[EB] | [Ec]6 [EF]>[EF][Fd]>[Fd][Fd]>[Fd][Ec]<[DB][DB]>[DB] | %5
w: la- bored in the field be- hind the|plow; And he felt that to the na- tions he the|
w: li- jah said that road would lead to|death; A- nd when he saw his shrink- ing would send|
w: made for all his poor- er friends a|feast; Leav- ing naught but bones and ash- es to be|
w: hard- ened piece of steel is made to|swim; And the spring of bit- ter wa- ter with a|
w: e’er thou hast and give it to the|poor; Leav- ing not your trea- sures in this world to|
 [Ec]>[EB] [EA]>[EG] !fermata![DF]2 [DF][DF] | [EG][Ge] [Fd]>[Fc] [DB]>[DB] [EA]>[EA] | [DB]8 || %8
w: truth of God must tell, He ap-|peared to shrink the cross as men do|now.|
w: ma- ny souls to hell, He said,|“No, I’ll fol- low God till lat- est|breath.”|
w: tempt- ed back to now, Ev- ery|bridge is burned, and God a- noints him|priest.|
w: cruse of salt is healed, And the|wi- dow’s pots with oil filled to the|brim.|
w: tempt you back from God, B- ut|lay them up on Heav- en’s last- ing|shore.|
"^Refrain" [DF]>[CE] [B,D]>[CE] [DF] [DB]3 | [DB]>[DB] [Ec]>[EA] [DB]4 | %10
w: ||
w: ||
w: Power to heal the lep- er,|power to raise the dead,|
w: ||
w: ||
 [EG]>[EG] [EG]>[EG] [=Ec]>[EB] [EA]>[EB] | [Ec]6 [EF]2 | [Fd]<[Fd] [Fd]>[Fd] [Ec]<[DB] [DB][DB] | %13
w: |||
w: |||
w: Power to fill the emp- ty pots with|oil; Is|wait- ing for the work- er who in|
w: |||
w: |||
 [DB][DB] [Fc]>[Fc] !fermata![Fd]2 F2 | [EG][Ge] [Fd]>[Ec] [DB]>[DB] [EA]>[EA] | [DB]6 |] %16
w: |||
w: |||
w: Je- sus’ steps will tread, And|leave his life of ease for one of|toil.|
w: |||
w: |||
V:2
 x2 | x8 | x8 | x8 | x16 | x8 | x8 | x8 || x8 | x8 | x8 | x8 | x8 | x6 F2 | x8 | x6 |] %16
V:3
 [B,,B,]>[B,,B,] | [B,,B,]>[B,,B,] [C,A,]<[C,A,] [D,B,]!fermata![D,B,] [B,,F,]>[B,,F,] | %2
 [F,,F,]>[F,,F,] [F,,F,]>[F,,F,] [B,,F,]2 [B,,B,][B,,B,] | %3
 [E,B,][E,B,] [E,B,]>[E,B,] [C,C]>[C,C] [C,C]>[C,G,] | %4
 [F,A,]6 [F,A,]>[F,A,][B,,B,]>[B,,B,][B,,B,]>[B,,B,][B,,B,]>[B,,B,][B,,F,]>[B,,F,] | %5
 [E,G,]>[E,G,] [E,A,]>[E,B,] !fermata![B,,B,]2 [B,,B,][B,,B,] | %6
 [E,B,][C,C] [D,B,]>[E,G,] F,>F, [F,C]>[F,C] | [B,,B,]8 || %8
 [B,,B,]>[B,,B,] [B,,F,]>[B,,F,] [B,,B,] [B,,B,]3 | F,>F, [F,A,]>[F,C] [B,,B,]4 | %10
 [E,B,]>[E,B,] [E,B,]>[E,B,] [C,C]>[C,C] [C,C]>[C,G,] | [F,A,]6 [F,A,]2 | %12
 [B,,B,]<[B,,B,] [B,,B,]>[B,,B,] [B,,B,]<[B,,B,] [B,,F,][B,,F,] | %13
 [D,F,][D,F,] [F,A,]>[F,A,] !fermata![B,,B,]2 [D,B,]2 | %14
 [E,B,][C,C] [D,B,]>[E,G,] F,>F, [F,C]>[F,C] | [B,,B,]6 |] %16
V:4
 x2 | x8 | x8 | x8 | x16 | x8 | x4 F,>F, x2 | x8 || x8 | F,>F, x6 | x8 | x8 | x8 | x8 | %14
 x4 F,>F, x2 | x6 |] %16

